pix_core/e/insert_edit_video.svg

<!DOCTYPE svg PUBLIC "-//W3C//DTD SVG 1.1//EN" "http://www.w3.org/Graphics/SVG/1.1/DTD/svg11.dtd" [
	<!ENTITY ns_flows "http://ns.adobe.com/Flows/1.0/">
]><svg xmlns="http://www.w3.org/2000/svg" width="16" height="16" viewBox="0 0 16 16" preserveAspectRatio="xMinYMid meet" overflow="visible"><path d="M0 0v16h16v-16h-16zm3 15h-2v-2h2v2zm0-4h-2v-2h2v2zm0-4h-2v-2h2v2zm0-4h-2v-2h2v2zm9 12h-8v-14h8v14zm3 0h-2v-2h2v2zm0-4h-2v-2h2v2zm0-4h-2v-2h2v2zm0-4h-2v-2h2v2zm-5 5l-4 3v-6l4 3z" fill="#1F4D87"/></svg>

<?xml version="1.0" encoding="utf-8"?>
<!-- Generator: Adobe Illustrator 15.1.0, SVG Export Plug-In  -->
<!DOCTYPE svg PUBLIC "-//W3C//DTD SVG 1.1//EN" "http://www.w3.org/Graphics/SVG/1.1/DTD/svg11.dtd" [
	<!ENTITY ns_flows "http://ns.adobe.com/Flows/1.0/">
]>
<svg version="1.1"
	 xmlns="http://www.w3.org/2000/svg" xmlns:xlink="http://www.w3.org/1999/xlink" xmlns:a="http://ns.adobe.com/AdobeSVGViewerExtensions/3.0/"
	 x="0px" y="0px" width="16px" height="16px" viewBox="0 0 16 16" style="overflow:visible;enable-background:new 0 0 16 16;"
	 xml:space="preserve" preserveAspectRatio="xMinYMid meet">
<defs>
</defs>
<path style="fill:#1F4D87;" d="M0,0v16h16V0H0z M3,15H1v-2h2V15z M3,11H1V9h2V11z M3,7H1V5h2V7z M3,3H1V1h2V3z M12,15H4V1h8V15z
	 M15,15h-2v-2h2V15z M15,11h-2V9h2V11z M15,7h-2V5h2V7z M15,3h-2V1h2V3z M10,8l-4,3V5L10,8z"/>
</svg>
